dist/svg/static/public-transport-large.svg

<svg xmlns="http://www.w3.org/2000/svg" width="48" height="48" viewBox="0 0 48 48"><g fill="none" stroke="currentColor"><path d="M42.5 29.5h-37M32.5 43.5v-2h-17v2c0 1.1-.9 2-2 2h-3c-1.1 0-2-.9-2-2v-2h-3v-19h-1c-1.1 0-2-.9-2-2v-11h43v11c0 1.1-.9 2-2 2h-1v19h-3v2c0 1.1-.9 2-2 2h-3c-1.1 0-2-.9-2-2z"/><path d="M5.5 23V6.5c0-1.6 1.3-3 3-3h31c1.7 0 3 1.3 3 3V23M12 32.5a2.5 2.5 0 1 1 0 5 2.5 2.5 0 0 1 0-5zM36 32.5a2.5 2.5 0 1 1 0 5 2.5 2.5 0 0 1 0-5z"/></g></svg>

<?xml version="1.0" encoding="UTF-8" standalone="no"?>
<svg width="48px" height="48px" viewBox="0 0 48 48" version="1.1" xmlns="http://www.w3.org/2000/svg" xmlns:xlink="http://www.w3.org/1999/xlink">
    <!-- Generator: sketchtool 46.2 (44496) - http://www.bohemiancoding.com/sketch -->
    <title>public-transport-large</title>
    <desc>Created with sketchtool.</desc>
    <defs></defs>
    <g id="icons-published" stroke="none" stroke-width="1" fill="none" fill-rule="evenodd">
        <g id="briefing" transform="translate(-1152.000000, -1434.000000)"></g>
        <g id="public-transport-large" stroke="#000000">
            <path d="M42.5,29.5 L5.5,29.5 L42.5,29.5 Z M32.5,43.5 L32.5,41.5 L15.5,41.5 L15.5,43.5 C15.5,44.6 14.6,45.5 13.5,45.5 L10.5,45.5 C9.4,45.5 8.5,44.6 8.5,43.5 L8.5,41.5 L5.5,41.5 L5.5,22.5 L4.5,22.5 C3.4,22.5 2.5,21.6 2.5,20.5 L2.5,9.5 L45.5,9.5 L45.5,20.5 C45.5,21.6 44.6,22.5 43.5,22.5 L42.5,22.5 L42.5,41.5 L39.5,41.5 L39.5,43.5 C39.5,44.6 38.6,45.5 37.5,45.5 L34.5,45.5 C33.4,45.5 32.5,44.6 32.5,43.5 Z" id="Shape"></path>
            <path d="M12,32.5 C13.4,32.5 14.5,33.6 14.5,35 C14.5,36.4 13.4,37.5 12,37.5 C10.6,37.5 9.5,36.4 9.5,35 C9.5,33.6 10.6,32.5 12,32.5 Z M36,32.5 C37.4,32.5 38.5,33.6 38.5,35 C38.5,36.4 37.4,37.5 36,37.5 C34.6,37.5 33.5,36.4 33.5,35 C33.5,33.6 34.6,32.5 36,32.5 Z" id="Shape"></path>
            <path d="M5.5,23 L5.5,6.5 C5.5,4.9 6.8,3.5 8.5,3.5 L39.5,3.5 C41.2,3.5 42.5,4.8 42.5,6.5 L42.5,23" id="Path"></path>
        </g>
    </g>
</svg>
